X:1
T:Title
%%score { ( 1 3 ) | 2 }
L:1/8
Q:1/4=108
M:4/4
K:Ab
V:1 treble nm="Grand Piano"
V:3 treble 
V:2 bass 
V:1
 [Ec]2 [CA]2 [CE]2 z2 | F2 A2 E2 z2 | [CA]2 [CA]>[DB] [Ec]2 [CA]2 | c2 B2 B2 z2 | %4
w: A.~F.~Myers * *||||
 [Ec]2 [CA]2 [CE]2 z2 | F2 A2 E2 z2 | [CA]2 [CA]>[DB] [Ec]2 [CA]2 | [Ec]2 [DB]2 [CA]4 | E6 z2 | %9
w: |||||
 A6 z2 | B6 z2 | c6 z2 | F6 z2 | E4 A4 | [Ec]4 [Fd]2 [Ec]2 | [EB]6 z2 | E6 z2 | A6 z2 | B6 z2 | %19
w: ||||||||||
 c6 z2 | F6 z2 | E4 A4 | c6 B2 | A6 z2 |] %24
w: |||||
V:2
 [A,,A,]2 [A,,E,]2 [A,,A,]2 z2 | [D,A,D]2 [F,A,D]2 [A,C]2 z2 | %2
 [A,,A,]2 [A,,A,]>[A,,A,] [A,,A,]2 [A,,A,]2 | [E,A,E]2 [E,G,E]2 [E,G,E]2 z2 | %4
 [A,,A,]2 [A,,E,]2 [A,,A,]2 z2 | [D,A,D]2 [F,A,D]2 [A,C]2 z2 | %6
 [A,,A,]2 [A,,A,]>[A,,A,] [A,,A,]2 [A,,A,]2 | [E,A,]2 [E,G,]2 [A,,A,]4 | %8
 [A,,A,]2 (3[A,,A,][A,,A,][A,,A,] [A,,A,]2 z2 | [A,,A,]2 (3[A,,A,][A,,A,][A,,A,] [A,,A,]2 z2 | %10
 [E,G,E]2 [E,G,]>[E,G,] [E,G,]2 z2 | [A,,A,]2 [A,,A,]>[A,,A,] [A,,A,]2 z2 | %12
 [D,A,D]2 [D,A,]>[D,A,] [D,A,][D,A,] z2 | [A,,A,]2 [A,,A,]>[A,,A,] [A,,A,][A,,A,] z2 | %14
 [A,,A,]2 [A,,A,]2 [A,,A,]2 [A,,A,]2 | [E,G,]2 E,>E, E,2 z2 | %16
 [A,,A,]2 (3[A,,A,][A,,A,][A,,A,] [A,,A,]2 z2 | [A,,A,]2 (3[A,,A,][A,,A,][A,,A,] [A,,A,]2 z2 | %18
 [E,G,E]2 [E,G,]>[E,G,] [E,G,]2 z2 | [A,,A,]2 [A,,A,]>[A,,A,] [A,,A,]2 z2 | %20
 [D,A,D]2 [D,A,]>[D,A,] [D,A,][D,A,] z2 | [A,,A,]2 [A,,A,]>[A,,A,] [A,,A,][A,,A,] z2 | %22
 [E,A,C]2 [E,A,]>[E,B,] [E,C][E,C][E,DE][E,D] | [A,,A,]2 [A,,A,]2 [A,,A,]2 z2 |] %24
V:3
 x8 | x8 | x8 | x8 | x8 | x8 | x8 | x8 | C2 (3CCC C2 (3EFG | C2 (3CCC C2 G>A | z2 E>E E2 A>B | %11
 E2 E>E E2 z2 | z2 D>D DD (3AGF | C2 C>C CC z2 | x8 | z2 G,>G, G,2 z2 | C2 (3CCC C2 (3EFG | %17
 C2 (3CCC C2 G>A | z2 E>E E2 A>B | E2 E>E E2 z2 | z2 D>D DD (3AGF | C2 C>C CC z2 | z2 C>D EE z E | %23
 [CE]2 [DF]2 [CE]2 z2 |] %24

